X:1
%
T:Away Whigs away
M:C|
L:1/8
R:Air
B:Oswald – Caledonian Pocket Companion, Book 6 (1760, p. 19)
Z:AK/Fiddler’s Companion
K:G
(Bc)|d4 d3B|d4 d2 Bd|e4 e3d|e4 e2g2|
{e}d2B2{B}A2G2|G3B B2 (AG)|(AB)(de) (dB)(AG)|E4 E2:|
|:AB|dBdg dgBg|d4 d2 gf|egdg egdg|e4 e2 ge|
dBde gabd|BdAB GABG|ABge dBAG|E4 D2:|]

